X: 544
T: Paddy Fahy's Jig #1
C: by Paddy Fahy
R: jig
Z: 2011 John Chambers <jc:trillian.mit.edu>
S: printed MS of unknown origin
N: Various transcriptions disagree on which Bs are b-flats.
M: 6/8
L: 1/8
K: G
F |\
"Gm"DGA _B2G | "F"cBc "G"d2g | "G"gfd Bcd | "F"cBG =FDC |\
"Gm"DGA _B2G | "F"cBc "D"dfa | "G"gfd Bcd | "D7"cAF "G"G2 :|
|: B/d/ |\
"G"g2d "D7"fga | "G"gfd Bcd | "F"c2A =fef | "D7"agf def |\
"Gm"g2a _bag | "D7"fdg fdc | "G"ABG "D"AGF | "D7"DGF "G"G2 :|

